;Sliced by ideaMaker 5.0.6.8380, 2024-11-14 20:50:14 UTC-0600
;Slicer Version: 5.0.6.8380
;Dimension: 365.000 240.000 240.000 0.400 0.400
;Plate Shape: 0
;Origin Center: 0
;Extruder Offset #1: 0.000 0.000
;Filament Diameter #1: 1.750
;Filament Diameter #2: 1.750
;Filament Compensation #1: 96.00
;Filament Compensation #2: 96.00
;Filament Density #1: 1240.00
;Filament Density #2: 1240.00
;Filament Type #1: PLA
;Filament Type #2: PLA
;Filament Name #1: [Raise3D] PLA 1.75mm
;Filament Name #2: [Raise3D] PLA 1.75mm
;Firmware: RepRapFirmware
;Bounding Box: 71.984 86.484 108.893 131.693 0.000 67.300
;Model Gap: 0.000
M605 S2
M221 S96.00
M140 S55.00
M104 S205.00
M109 S205.00
M190 S55.00
M572 D0 S0.09
M572 D1 S0.09
G21
G90
M82
M107
G28
G1 Z0 F500
G92 E0
G1 Z0.2 F400
G1 X60 Y-2 F800
G1 X140 Y-2 E12 F200
G1 Z5 E15 F200
G92 E0
G1 F9000.0
M117 Printing...
M1001
;TOTAL_NUM: 1
;PRINTING_TIME: 0
;REMAINING_TIME: 4711
;LAYER:0
;Z:0.300
;HEIGHT:0.300
M106 S0
M140 S55
;PRINTING: Odometer_Test_Bracket.stl
;PRINTING_ID: 0
G1 F2400 E-0.5000
G0 F9000 X77.199 Y111.893
G0 F900 Z0.300
;TYPE:WALL-INNER
;WIDTH:0.700
G1 F1500 E0.0000
G1 F900 X77.984 Y111.543 E0.0750
G1 X78.821 Y111.366 E0.1497
G1 X79.679 Y111.366 E0.2246
G1 X80.516 Y111.543 E0.2993
G1 X81.301 Y111.893 E0.3744
G1 X81.995 Y112.397 E0.4493
G1 X82.568 Y113.035 E0.5241
G1 X82.997 Y113.778 E0.5990
G1 X83.264 Y114.594 E0.6740
G1 X83.366 Y115.574 E0.7600
G1 X83.366 Y124.477 E1.5373
G1 X83.328 Y125.066 E1.5889
G1 X83.227 Y125.594 E1.6358
G1 X83.073 Y126.067 E1.6792
G1 X82.852 Y126.534 E1.7243
G1 X82.576 Y126.971 E1.7695
G1 X82.247 Y127.369 E1.8145
G1 X81.870 Y127.722 E1.8596
G1 X81.453 Y128.025 E1.9046
G1 X81.000 Y128.273 E1.9497
G1 X80.521 Y128.464 E1.9947
G1 X80.021 Y128.592 E2.0398
G1 X79.508 Y128.657 E2.0850
G1 X78.992 Y128.657 E2.1300
G1 X78.482 Y128.593 E2.1749
G1 X77.964 Y128.458 E2.2216
G1 X77.501 Y128.275 E2.2651
G1 X77.048 Y128.026 E2.3102
G1 X76.630 Y127.722 E2.3553
G1 X76.253 Y127.369 E2.4004
G1 X75.924 Y126.971 E2.4455
G1 X75.648 Y126.534 E2.4906
G1 X75.427 Y126.067 E2.5357
G1 X75.268 Y125.578 E2.5806
G1 X75.172 Y125.070 E2.6258
G1 X75.134 Y124.477 E2.6777
G1 X75.134 Y115.579 E3.4545
G1 X75.237 Y114.593 E3.5411
G1 X75.503 Y113.778 E3.6159
G1 X75.932 Y113.035 E3.6908
G1 X76.505 Y112.397 E3.7657
G1 X77.199 Y111.893 E3.8406
G1 F2400 E3.3406
G0 F9000 X76.847 Y111.284
G1 F1500 E3.8406
G1 F900 X77.766 Y110.874 E3.9284
G1 X78.748 Y110.666 E4.0161
G1 X79.752 Y110.666 E4.1037
G1 X80.734 Y110.874 E4.1914
G1 X81.653 Y111.284 E4.2792
G1 X82.466 Y111.874 E4.3669
G1 X83.138 Y112.622 E4.4547
G1 X83.640 Y113.491 E4.5424
G1 X83.952 Y114.447 E4.6302
G1 X84.066 Y115.538 E4.7259
G1 X84.066 Y124.499 E5.5083
G1 X84.024 Y125.155 E5.5657
G1 X83.906 Y125.769 E5.6203
G1 X83.725 Y126.326 E5.6714
G1 X83.467 Y126.872 E5.7241
G1 X83.144 Y127.383 E5.7769
G1 X82.758 Y127.849 E5.8297
G1 X82.317 Y128.263 E5.8825
G1 X81.828 Y128.618 E5.9353
G1 X81.299 Y128.908 E5.9880
G1 X80.738 Y129.131 E6.0407
G1 X80.152 Y129.281 E6.0935
G1 X79.552 Y129.357 E6.1463
G1 X78.948 Y129.357 E6.1990
G1 X78.350 Y129.282 E6.2517
G1 X77.746 Y129.125 E6.3061
G1 X77.202 Y128.910 E6.3572
G1 X76.672 Y128.618 E6.4100
G1 X76.183 Y128.263 E6.4628
G1 X75.742 Y127.849 E6.5156
G1 X75.356 Y127.383 E6.5684
G1 X75.033 Y126.872 E6.6212
G1 X74.775 Y126.326 E6.6739
G1 X74.588 Y125.752 E6.7266
G1 X74.476 Y125.157 E6.7795
G1 X74.434 Y124.499 E6.8371
G1 X74.434 Y115.542 E7.6191
G1 X74.549 Y114.446 E7.7153
G1 X74.860 Y113.491 E7.8030
G1 X75.362 Y112.622 E7.8906
G1 X76.034 Y111.874 E7.9784
G1 X76.847 Y111.284 E8.0661
G1 F2400 E7.5661
G0 F9000 X76.544 Y110.762
G0 X76.495 Y110.675
G1 F1500 E8.0661
G1 F900 X77.548 Y110.205 E8.1668
G1 X78.675 Y109.966 E8.2674
G1 X79.825 Y109.966 E8.3678
G1 X80.952 Y110.205 E8.4684
G1 X82.005 Y110.675 E8.5690
G1 X82.937 Y111.351 E8.6696
G1 X83.707 Y112.208 E8.7701
G1 X84.283 Y113.204 E8.8706
G1 X84.640 Y114.301 E8.9713
G1 X84.766 Y115.501 E9.0767
G1 X84.766 Y124.521 E9.8642
G1 X84.720 Y125.244 E9.9274
G1 X84.585 Y125.944 E9.9897
G1 X84.377 Y126.584 E10.0484
G1 X84.082 Y127.210 E10.1088
G1 X83.711 Y127.795 E10.1693
G1 X83.269 Y128.329 E10.2298
G1 X82.764 Y128.803 E10.2903
G1 X82.204 Y129.210 E10.3508
G1 X81.598 Y129.543 E10.4111
G1 X80.955 Y129.798 E10.4715
G1 X80.283 Y129.970 E10.5321
G1 X79.596 Y130.057 E10.5925
G1 X78.904 Y130.057 E10.6530
G1 X78.218 Y129.971 E10.7133
G1 X77.528 Y129.792 E10.7756
G1 X76.903 Y129.544 E10.8343
G1 X76.296 Y129.210 E10.8948
G1 X75.736 Y128.803 E10.9552
G1 X75.231 Y128.329 E11.0157
G1 X74.789 Y127.795 E11.0762
G1 X74.418 Y127.210 E11.1367
G1 X74.123 Y126.584 E11.1971
G1 X73.909 Y125.926 E11.2575
G1 X73.780 Y125.245 E11.3180
G1 X73.734 Y124.521 E11.3814
G1 X73.734 Y115.506 E12.1684
G1 X73.860 Y114.300 E12.2743
G1 X74.217 Y113.204 E12.3749
G1 X74.793 Y112.208 E12.4754
G1 X75.563 Y111.351 E12.5760
G1 X76.495 Y110.675 E12.6765
G1 F2400 E12.1765
G0 F9000 X76.544 Y110.762
G0 X76.544 Y110.761
G0 X76.143 Y110.065
;TYPE:WALL-OUTER
;WIDTH:0.700
G1 F1500 E12.6765
G1 F900 X77.330 Y109.536 E12.7900
G1 X78.601 Y109.266 E12.9034
G1 X79.899 Y109.266 E13.0167
G1 X81.170 Y109.536 E13.1302
G1 X82.357 Y110.065 E13.2436
G1 X83.408 Y110.828 E13.3570
G1 X84.277 Y111.794 E13.4705
G1 X84.926 Y112.918 E13.5838
G1 X85.328 Y114.154 E13.6973
G1 X85.466 Y115.464 E13.8123
G1 X85.466 Y124.543 E14.6049
G1 X85.416 Y125.333 E14.6740
G1 X85.264 Y126.119 E14.7439
G1 X85.029 Y126.842 E14.8103
G1 X84.697 Y127.548 E14.8784
G1 X84.278 Y128.207 E14.9466
G1 X83.780 Y128.809 E15.0148
G1 X83.211 Y129.343 E15.0830
G1 X82.580 Y129.802 E15.1511
G1 X81.897 Y130.178 E15.2191
G1 X81.171 Y130.465 E15.2873
G1 X80.414 Y130.659 E15.3555
G1 X79.640 Y130.757 E15.4237
G1 X78.860 Y130.757 E15.4918
G1 X78.086 Y130.660 E15.5599
G1 X77.310 Y130.459 E15.6298
G1 X76.604 Y130.178 E15.6962
G1 X75.920 Y129.802 E15.7643
G1 X75.289 Y129.343 E15.8325
G1 X74.720 Y128.809 E15.9006
G1 X74.222 Y128.207 E15.9688
G1 X73.803 Y127.548 E16.0370
G1 X73.471 Y126.842 E16.1051
G1 X73.230 Y126.100 E16.1732
G1 X73.084 Y125.333 E16.2414
G1 X73.034 Y124.543 E16.3105
G1 X73.034 Y115.469 E17.1027
G1 X73.172 Y114.154 E17.2182
G1 X73.574 Y112.918 E17.3316
G1 X74.223 Y111.794 E17.4450
G1 X75.092 Y110.828 E17.5584
G1 X76.143 Y110.065 E17.6718
G0 F3600 X76.325 Y109.984
G1 F2400 E17.1718
G0 F9000 X76.650 Y110.715
G0 X81.147 Y111.977
;TYPE:SOLID-FILL
;WIDTH:0.400
G1 F1500 E17.6718
G1 F900 X82.683 Y113.513 E17.7802
G0 F900 X83.077 Y114.473
G1 F900 X80.229 Y111.625 E17.9811
G0 F900 X79.544 Y111.505
G1 F900 X83.180 Y115.141 E18.2376
G0 F900 X83.225 Y115.752
G1 F900 X78.978 Y111.505 E18.5373
G0 F900 X78.487 Y111.580
G1 F900 X83.225 Y116.318 E18.8716
G0 F900 X83.225 Y116.884
G1 F900 X78.021 Y111.679 E19.2388
G0 F900 X77.629 Y111.853
G1 F900 X83.225 Y117.449 E19.6336
G0 F900 X83.225 Y118.015
G1 F900 X77.243 Y112.033 E20.0557
G0 F900 X76.915 Y112.270
G1 F900 X83.225 Y118.581 E20.5009
G0 F900 X83.225 Y119.146
G1 F900 X76.589 Y112.510 E20.9691
G0 F900 X76.322 Y112.808
G1 F900 X83.225 Y119.712 E21.4562
G0 F900 X83.225 Y120.278
G1 F900 X76.054 Y113.107 E21.9622
G0 F900 X75.844 Y113.463
G1 F900 X83.225 Y120.843 E22.4829
G0 F900 X83.225 Y121.409
G1 F900 X75.637 Y113.821 E23.0183
G0 F900 X75.496 Y114.245
G1 F900 X83.225 Y121.975 E23.5636
G0 F900 X83.225 Y122.540
G1 F900 X75.367 Y114.682 E24.1180
G0 F900 X75.314 Y115.195
G1 F900 X83.225 Y123.106 E24.6762
G0 F900 X83.225 Y123.672
G1 F900 X75.274 Y115.720 E25.2372
G0 F900 X75.274 Y116.286
G1 F900 X83.225 Y124.237 E25.7982
G0 F900 X83.205 Y124.783
G1 F900 X75.274 Y116.852 E26.3578
G0 F900 X75.274 Y117.417
G1 F900 X83.143 Y125.287 E26.9130
G0 F900 X83.032 Y125.741
G1 F900 X75.274 Y117.983 E27.4604
G0 F900 X75.274 Y118.549
G1 F900 X82.877 Y126.152 E27.9968
G0 F900 X82.689 Y126.529
G1 F900 X75.274 Y119.114 E28.5200
G0 F900 X75.274 Y119.680
G1 F900 X82.469 Y126.876 E29.0277
G0 F900 X82.215 Y127.187
G1 F900 X75.274 Y120.246 E29.5174
G0 F900 X75.274 Y120.812
G1 F900 X81.932 Y127.470 E29.9872
G0 F900 X81.623 Y127.726
G1 F900 X75.274 Y121.377 E30.4351
G0 F900 X75.274 Y121.943
G1 F900 X81.286 Y127.955 E30.8593
G0 F900 X80.918 Y128.153
G1 F900 X75.274 Y122.509 E31.2575
G0 F900 X75.274 Y123.074
G1 F900 X80.514 Y128.314 E31.6272
G0 F900 X80.068 Y128.434
G1 F900 X75.274 Y123.640 E31.9655
G0 F900 X75.274 Y124.206
G1 F900 X79.574 Y128.506 E32.2689
G0 F900 X79.018 Y128.515
G1 F900 X75.294 Y124.791 E32.5316
G0 F900 X75.386 Y125.449
G1 F900 X78.350 Y128.413 E32.7407
G0 F900 X77.468 Y128.097
G1 F900 X75.712 Y126.340 E32.8647
;PRINTING_TIME: 38
;REMAINING_TIME: 4673
;LAYER:1
;Z:0.500
;HEIGHT:0.200
M106 S128
;PRINTING: Odometer_Test_Bracket.stl
;PRINTING_ID: 0
G1 F2400 E32.3647
G0 F900 Z0.500
G0 F9000 X76.470 Y110.630
;TYPE:WALL-INNER
;WIDTH:0.400
G1 F1500 E32.8647
G1 F1350 X77.531 Y110.158 E32.9033
G1 X78.669 Y109.916 E32.9420
G1 X79.831 Y109.916 E32.9806
G1 X80.969 Y110.158 E33.0193
G1 X82.030 Y110.630 E33.0579
G1 X82.970 Y111.313 E33.0966
G1 X83.749 Y112.177 E33.1353
G1 X84.330 Y113.184 E33.1740
G1 X84.689 Y114.291 E33.2127
G1 X84.816 Y115.499 E33.2531
G1 X84.816 Y124.522 E33.5532
G1 X84.769 Y125.252 E33.5775
G1 X84.640 Y125.937 E33.6007
G1 X84.423 Y126.601 E33.6239
G1 X84.126 Y127.234 E33.6472
G1 X83.752 Y127.825 E33.6704
G1 X83.306 Y128.363 E33.6937
G1 X82.796 Y128.841 E33.7169
G1 X82.231 Y129.253 E33.7402
G1 X81.619 Y129.588 E33.7634
G1 X80.969 Y129.846 E33.7866
G1 X80.293 Y130.019 E33.8099
G1 X79.599 Y130.107 E33.8331
G1 X78.901 Y130.107 E33.8563
G1 X78.207 Y130.019 E33.8796
G1 X77.531 Y129.846 E33.9028
G1 X76.881 Y129.588 E33.9261
G1 X76.269 Y129.253 E33.9493
G1 X75.704 Y128.841 E33.9725
G1 X75.194 Y128.363 E33.9958
G1 X74.748 Y127.825 E34.0190
G1 X74.374 Y127.234 E34.0423
G1 X74.077 Y126.601 E34.0655
G1 X73.860 Y125.937 E34.0888
G1 X73.731 Y125.252 E34.1120
G1 X73.684 Y124.522 E34.1363
G1 X73.684 Y115.491 E34.4367
G1 X73.811 Y114.291 E34.4768
G1 X74.170 Y113.184 E34.5155
G1 X74.751 Y112.177 E34.5542
G1 X75.530 Y111.313 E34.5929
G1 X76.470 Y110.630 E34.6315
G0 F9000 X76.269 Y110.282
G1 F1350 X77.407 Y109.775 E34.6730
G1 X78.627 Y109.516 E34.7144
G1 X79.873 Y109.516 E34.7559
G1 X81.093 Y109.775 E34.7974
G1 X82.231 Y110.282 E34.8388
G1 X83.239 Y111.014 E34.8802
G1 X84.074 Y111.941 E34.9217
G1 X84.697 Y113.021 E34.9632
G1 X85.082 Y114.207 E35.0047
G1 X85.216 Y115.478 E35.0472
G1 X85.216 Y124.535 E35.3484
G1 X85.167 Y125.302 E35.3740
G1 X85.028 Y126.037 E35.3989
G1 X84.796 Y126.749 E35.4238
G1 X84.477 Y127.427 E35.4487
G1 X84.076 Y128.060 E35.4736
G1 X83.598 Y128.638 E35.4985
G1 X83.051 Y129.150 E35.5235
G1 X82.446 Y129.591 E35.5484
G1 X81.790 Y129.951 E35.5733
G1 X81.093 Y130.227 E35.5982
G1 X80.368 Y130.413 E35.6231
G1 X79.624 Y130.507 E35.6480
G1 X78.876 Y130.507 E35.6729
G1 X78.132 Y130.413 E35.6978
G1 X77.407 Y130.227 E35.7227
G1 X76.710 Y129.951 E35.7477
G1 X76.054 Y129.591 E35.7726
G1 X75.449 Y129.150 E35.7975
G1 X74.902 Y128.638 E35.8224
G1 X74.424 Y128.060 E35.8473
G1 X74.023 Y127.427 E35.8723
G1 X73.704 Y126.749 E35.8972
G1 X73.472 Y126.037 E35.9221
G1 X73.333 Y125.302 E35.9470
G1 X73.284 Y124.535 E35.9725
G1 X73.284 Y115.470 E36.2740
G1 X73.418 Y114.207 E36.3163
G1 X73.803 Y113.021 E36.3577
G1 X74.426 Y111.941 E36.3992
G1 X75.261 Y111.014 E36.4407
G1 X76.269 Y110.282 E36.4821
G1 F2400 E35.9821
G0 F9000 X76.068 Y109.934
;TYPE:WALL-OUTER
;WIDTH:0.400
G1 F1500 E36.4821
G1 F1200 X77.283 Y109.392 E36.5264
G1 X78.585 Y109.116 E36.5707
G1 X79.915 Y109.116 E36.6149
G1 X81.217 Y109.392 E36.6592
G1 X82.432 Y109.934 E36.7034
G1 X83.508 Y110.715 E36.7476
G1 X84.399 Y111.705 E36.7919
G1 X85.064 Y112.857 E36.8362
G1 X85.475 Y114.123 E36.8804
G1 X85.616 Y115.457 E36.9251
G1 X85.616 Y124.548 E37.2274
G1 X85.565 Y125.352 E37.2542
G1 X85.416 Y126.137 E37.2808
G1 X85.169 Y126.897 E37.3074
G1 X84.828 Y127.620 E37.3340
G1 X84.400 Y128.295 E37.3606
G1 X83.890 Y128.912 E37.3872
G1 X83.307 Y129.459 E37.4138
G1 X82.661 Y129.929 E37.4403
G1 X81.961 Y130.314 E37.4669
G1 X81.217 Y130.608 E37.4935
G1 X80.443 Y130.807 E37.5201
G1 X79.649 Y130.907 E37.5467
G1 X78.851 Y130.907 E37.5733
G1 X78.057 Y130.807 E37.5999
G1 X77.283 Y130.608 E37.6265
G1 X76.539 Y130.314 E37.6531
G1 X75.839 Y129.929 E37.6796
G1 X75.193 Y129.459 E37.7062
G1 X74.610 Y128.912 E37.7328
G1 X74.100 Y128.295 E37.7594
G1 X73.672 Y127.620 E37.7860
G1 X73.331 Y126.897 E37.8126
G1 X73.084 Y126.137 E37.8392
G1 X72.935 Y125.352 E37.8657
G1 X72.884 Y124.548 E37.8925
G1 X72.884 Y115.449 E38.1952
G1 X73.025 Y114.123 E38.2395
G1 X73.436 Y112.857 E38.2838
G1 X74.101 Y111.705 E38.3280
G1 X74.992 Y110.715 E38.3723
G1 X76.068 Y109.934 E38.4166
G0 F3600 X76.250 Y109.853
G1 F2400 E37.9166
G0 F9000 X76.452 Y110.310
G0 X75.708 Y111.533
;TYPE:SOLID-FILL
;WIDTH:0.400
G1 F1500 E38.4166
G1 F1575 X74.976 Y112.343 E38.4529
G1 X74.427 Y113.297 E38.4895
G1 X74.389 Y113.418 E38.4937
G1 X77.194 Y110.613 E38.6256
G1 X77.616 Y110.425 E38.6410
G1 X78.037 Y110.335 E38.6553
G1 X74.117 Y114.255 E38.8397
G1 X74.087 Y114.348 E38.8430
G1 X74.027 Y114.911 E38.8618
G1 X78.743 Y110.195 E39.0836
G1 X79.309 Y110.195 E39.1024
G1 X73.964 Y115.540 E39.3538
G1 X73.964 Y116.106 E39.3727
G1 X79.862 Y110.208 E39.6501
G1 X80.328 Y110.307 E39.6659
G1 X73.964 Y116.671 E39.9653
G1 X73.964 Y117.237 E39.9841
G1 X80.795 Y110.406 E40.3054
G1 X80.882 Y110.425 E40.3084
G1 X81.201 Y110.566 E40.3200
G1 X73.964 Y117.803 E40.6604
G1 X73.964 Y118.368 E40.6792
G1 X81.593 Y110.739 E41.0380
G1 X81.890 Y110.872 E41.0488
G1 X81.969 Y110.929 E41.0521
G1 X73.964 Y118.934 E41.4286
G1 X73.964 Y119.500 E41.4474
G1 X82.296 Y111.167 E41.8394
G1 X82.624 Y111.406 E41.8529
G1 X73.964 Y120.066 E42.2602
G1 X73.964 Y120.631 E42.2790
G1 X82.920 Y111.675 E42.7003
G1 X83.188 Y111.973 E42.7136
G1 X73.964 Y121.197 E43.1475
G1 X73.964 Y121.763 E43.1663
G1 X83.456 Y112.270 E43.6128
G1 X83.522 Y112.343 E43.6161
G1 X83.678 Y112.614 E43.6265
G1 X73.964 Y122.328 E44.0834
G1 X73.964 Y122.894 E44.1022
G1 X83.885 Y112.973 E44.5689
G1 X84.072 Y113.296 E44.5813
G1 X84.085 Y113.338 E44.5827
G1 X73.964 Y123.460 E45.0588
G1 X73.964 Y124.025 E45.0776
G1 X84.224 Y113.765 E45.5602
G1 X84.362 Y114.193 E45.5752
G1 X73.969 Y124.585 E46.0640
G1 X74.003 Y125.117 E46.0817
G1 X84.446 Y114.674 E46.5729
G1 X84.500 Y115.186 E46.5901
G1 X74.083 Y125.603 E47.0800
G1 X74.133 Y125.870 E47.0891
G1 X74.194 Y126.058 E47.0957
G1 X84.536 Y115.716 E47.5821
G1 X84.536 Y116.282 E47.6009
G1 X74.334 Y126.483 E48.0808
G1 X74.337 Y126.495 E48.0812
G1 X74.513 Y126.870 E48.0950
G1 X84.536 Y116.847 E48.5664
G1 X84.536 Y117.413 E48.5852
G1 X74.710 Y127.239 E49.0474
G1 X74.929 Y127.586 E49.0611
G1 X84.536 Y117.979 E49.5130
G1 X84.536 Y118.545 E49.5318
G1 X75.177 Y127.903 E49.9720
G1 X75.398 Y128.170 E49.9835
G1 X75.437 Y128.209 E49.9853
G1 X84.536 Y119.110 E50.4133
G1 X84.536 Y119.676 E50.4322
G1 X75.730 Y128.482 E50.8464
G1 X75.881 Y128.623 E50.8532
G1 X76.039 Y128.738 E50.8597
G1 X84.536 Y120.242 E51.2594
G1 X84.536 Y120.807 E51.2782
G1 X76.366 Y128.977 E51.6625
G1 X76.424 Y129.019 E51.6649
G1 X76.725 Y129.184 E51.6763
G1 X84.536 Y121.373 E52.0437
G1 X84.536 Y121.939 E52.0625
G1 X77.100 Y129.374 E52.4122
G1 X77.505 Y129.534 E52.4267
G1 X84.536 Y122.504 E52.7574
G1 X84.536 Y123.070 E52.7762
G1 X77.945 Y129.661 E53.0863
G1 X78.266 Y129.743 E53.0973
G1 X78.409 Y129.762 E53.1021
G1 X84.536 Y123.636 E53.3903
G1 X84.536 Y124.201 E53.4090
G1 X78.911 Y129.826 E53.6736
G1 X78.914 Y129.826 E53.6737
G1 X79.477 Y129.826 E53.6925
G1 X84.517 Y124.785 E53.9295
G1 X84.490 Y125.216 E53.9439
G1 X84.451 Y125.417 E53.9507
G1 X80.110 Y129.759 E54.1549
G1 X80.233 Y129.742 E54.1591
G1 X80.849 Y129.585 E54.1802
G1 X84.271 Y126.163 E54.3412
G1 X84.163 Y126.495 E54.3528
G1 X83.879 Y127.098 E54.3749
G1 X83.840 Y127.159 E54.3774
G1 X81.867 Y129.133 E54.4702
;PRINTING_TIME: 68
;REMAINING_TIME: 4643
;LAYER:2
;Z:0.700
;HEIGHT:0.200
M106 S255
;PRINTING: Odometer_Test_Bracket.stl
;PRINTING_ID: 0
G1 F2400 E53.9702
G0 F900 Z0.700
G0 F9000 X81.867 Y129.133
G0 X76.318 Y110.369
G0 X76.269 Y110.282
;TYPE:WALL-INNER
;WIDTH:0.400
G1 F1500 E54.4702
G1 F1800 X77.407 Y109.775 E54.5116
G1 X78.627 Y109.516 E54.5531
G1 X79.873 Y109.516 E54.5945
G1 X81.093 Y109.775 E54.6360
